X:48
T:score14
L:1/8
Q:1/4=96
M:1/4
I:linebreak $
K:G
 (B>c |[M:3/4] d>^c d>c d>c | d4) (e>B | c4) (d>A | B4) (G>A |$ B>^A B>A B>A | B4) (AG) | %7
 (GF) FA (GE |[M:2/4] D2) z2 |] %9
